X:12
T:Mo Mh\'uirn\'in B\'an
R:slow air
D:Mary Bergin
Z:id:hn-slowair-12
M:3/4
L:1/8
Q:1/4=70
K:G
d>f | g4 a2 | g4 fg | a4 dd | e4 dB | c A3
de | f6 | g4 f2 | d4 B2 | c A3 F2 | F G3 A2 | G4 :|
z2 | d3 c A2 | B3 c d2 | g4 ga | b a4 g | g4 f2 | d4
dd | g3 a b2 | a2 ag f/g/a/f/ | g4 f2 | g4 ||
d>f | g4 a2 | g4 fg | a4 dd | e4 dB | c A3
de | f6 | g4 f2 | d4 B2 | c A3 F2 | F G3 A2 | G4 ||

